!! 00000] TT[WS
!!!OTL: Ertong fangshao
!!!ARE: Asia, China, Shanxi Xingxian
!! Ethnic Group: Han
!! WII, 232 (2)
!!!SCT: J0748
!!!YEM: Copyright 1995, estate of Helmut Schaffrath.
**kern
*ICvox
*Ivox
*M2/4
*k[b-]
*F:
{8ff
16ff
16dd
8cc
8ff
=1
8a
8g
4f
=2
8.f
16g
8a
8dd
=3
2cc}
=4
{8ff
16ff
16dd
8cc
16ff
16ff
=5
8a
8g
4f
=6
8.f
16g
8a
8dd
=7
8cc
4g
16a
16g
=8
2f}
==
!!!AGN: Xiaodiao. XÅshi, Xinminge
!!!ONB: ESAC (Essen Associative Code) Database: CHINA
!!!AMT: simple duple
!!!AIN: vox
!!!EED: Helmut Schaffrath
!!!EEV: 1.0
*-
